X:113
T:Marsch. BarnabÃ  Fontana  C (mr 02211)
S:Hanny Christen. Bd.II  St. Gallen II, GraubÃ¼nden, Tessin. S.380 (mr 02211) orig. C
S:BÃ¼ndner Tanzmusik. S.367-383. Zusammenstellung von Hanny Christen. 
O:Switzerland
%%MIDI program 21
R:Galopp
M:4/4
L:1/8
K:C %%MIDI gchordon
"C"c2 G>c ed c2 | g2 c>e"G7"d2z2 | "Dm"d2 A>d fe dc | "G7"Bg/g/ gB "C"c2z2 :| "Am"e>f e>f ed cB | 
A2 "F"A/B/c/f/ "Am"e2 "F"A/B/c/f/ | "C"e4 "G"d>e d>c | BA G2 "D7"^FA d/c/B/A/ | "G"G2z2z2 eg | "G7"f6 fa | 
"C"g6 eg | "G7"f3e de f^f | "C"g4e2 eg | "G7"f6 fa | "C"g6 c>B | "Dm"A2 d>c "G7"B2 e>d | "C"c2 c>c c2z2 |] 
% mr 02211  (H 077/TN 44)
% Nov 30, 2016

